img/icones/eletrica.svg

<svg width="32" height="32" viewBox="0 0 32 32" fill="none" xmlns="http://www.w3.org/2000/svg">
<path d="M25.3333 9.33337H24.24L21.9733 3.09337C21.7857 2.57885 21.4448 2.13424 20.9965 1.81953C20.5483 1.50482 20.0143 1.33514 19.4667 1.33337H17.3333C16.6 1.33337 16 1.93337 16 2.66671C16 3.40004 16.6 4.00004 17.3333 4.00004H19.4667L21.4133 9.33337H15L14.52 8.00004H14.64C15.3733 8.00004 15.9733 7.40004 15.9733 6.66671C15.9733 5.93337 15.3733 5.33337 14.64 5.33337H10.6667C9.93333 5.33337 9.33333 5.93337 9.33333 6.66671C9.33333 7.40004 9.93333 8.00004 10.6667 8.00004H11.6667L14.0933 14.6667H13.2C12.6133 11.6934 10.12 9.49337 7 9.34671C3.26667 9.16004 0 12.2667 0 16C0 19.7334 2.93333 22.6667 6.66667 22.6667C9.94667 22.6667 12.6 20.4134 13.2 17.3334H18.8C19.3867 20.3067 21.88 22.5067 25 22.6534C28.7333 22.8267 32 19.7334 32 15.9867C32 12.2667 29.0667 9.33337 25.3333 9.33337ZM8 17.3334H10.4267C9.86667 18.9734 8.29333 20.1067 6.4 19.9867C4.41333 19.8667 2.76 18.1867 2.66667 16.1867C2.57333 13.8534 4.36 12 6.66667 12C8.44 12 9.89333 13.1067 10.4267 14.6667H8C7.26667 14.6667 6.66667 15.2667 6.66667 16C6.66667 16.7334 7.26667 17.3334 8 17.3334ZM18.8 14.6667H16.9333L15.96 12H20C19.4133 12.7734 18.9867 13.6667 18.8 14.6667ZM25.1733 20C23.12 19.92 21.3867 18.1734 21.3333 16.1067C21.3067 14.8267 21.8533 13.7067 22.7333 12.96L23.56 15.2267C23.8133 15.92 24.5733 16.28 25.2667 16.0267C25.96 15.7734 26.32 15.0134 26.0667 14.32L25.2267 12.0134L25.24 12C25.7746 11.9818 26.3073 12.0721 26.806 12.2655C27.3047 12.4588 27.7591 12.7513 28.1416 13.1251C28.5242 13.499 28.827 13.9464 29.0319 14.4406C29.2367 14.9347 29.3392 15.4652 29.3333 16C29.3333 18.2934 27.4933 20.08 25.1733 20ZM14.6667 26.6667H9.33333L17.3333 30.6667V28H22.6667L14.6667 24V26.6667Z" fill="url(#paint0_linear_28:216)"/>
<defs>
<linearGradient id="paint0_linear_28:216" x1="16" y1="1.33337" x2="16" y2="30.6667" gradientUnits="userSpaceOnUse">
<stop stop-color="#FFBF00"/>
<stop offset="1" stop-color="#F2A50C"/>
</linearGradient>
</defs>
</svg>

<svg width="32" height="32" fill="none" xmlns="http://www.w3.org/2000/svg">
  <path d="M25.333 9.333H24.24l-2.267-6.24a2.677 2.677 0 0 0-2.506-1.76h-2.134c-.733 0-1.333.6-1.333 1.334C16 3.4 16.6 4 17.333 4h2.134l1.946 5.333H15L14.52 8h.12c.733 0 1.333-.6 1.333-1.333 0-.734-.6-1.334-1.333-1.334h-3.973c-.734 0-1.334.6-1.334 1.334 0 .733.6 1.333 1.334 1.333h1l2.426 6.667H13.2c-.587-2.974-3.08-5.174-6.2-5.32C3.267 9.16 0 12.267 0 16c0 3.733 2.933 6.667 6.667 6.667 3.28 0 5.933-2.254 6.533-5.334h5.6c.587 2.974 3.08 5.174 6.2 5.32 3.733.174 7-2.92 7-6.666 0-3.72-2.933-6.654-6.667-6.654ZM8 17.333h2.427c-.56 1.64-2.134 2.774-4.027 2.654-1.987-.12-3.64-1.8-3.733-3.8C2.573 13.853 4.36 12 6.667 12a3.932 3.932 0 0 1 3.76 2.667H8c-.733 0-1.333.6-1.333 1.333s.6 1.333 1.333 1.333Zm10.8-2.666h-1.867L15.96 12H20a6.312 6.312 0 0 0-1.2 2.667ZM25.173 20c-2.053-.08-3.786-1.827-3.84-3.893-.026-1.28.52-2.4 1.4-3.147l.827 2.267a1.33 1.33 0 0 0 1.707.8 1.33 1.33 0 0 0 .8-1.707l-.84-2.307.013-.013a3.958 3.958 0 0 1 4.093 4c0 2.293-1.84 4.08-4.16 4Zm-10.506 6.667H9.333l8 4V28h5.334l-8-4v2.667Z" fill="url(#a)"/>
  <defs>
    <linearGradient id="a" x1="16" y1="1.333" x2="16" y2="30.667" gradientUnits="userSpaceOnUse">
      <stop stop-color="#FFBF00"/>
      <stop offset="1" stop-color="#F2A50C"/>
    </linearGradient>
  </defs>
</svg>
